Newaita-dark/actions/24/code-variable.svg

<?xml version="1.0" encoding="UTF-8"?>
<svg xmlns="http://www.w3.org/2000/svg" xmlns:xlink="http://www.w3.org/1999/xlink" width="24pt" height="24pt" viewBox="0 0 24 24" version="1.1">
<g id="surface1">
<path style=" stroke:none;fill-rule:nonzero;fill:rgb(47.058824%,56.470591%,61.176473%);fill-opacity:1;" d="M 13.148438 12.09375 C 13.558594 12.09375 13.890625 12.429688 13.890625 12.839844 L 13.890625 18.296875 C 13.890625 18.707031 13.558594 19.039062 13.148438 19.039062 C 12.738281 19.039062 12.402344 18.707031 12.402344 18.296875 L 12.402344 12.839844 C 12.402344 12.429688 12.738281 12.09375 13.148438 12.09375 Z M 13.148438 12.09375 "/>
<path style=" stroke:none;fill-rule:nonzero;fill:rgb(47.058824%,56.470591%,61.176473%);fill-opacity:1;" d="M 3.226562 12.09375 C 3.636719 12.09375 3.96875 12.429688 3.96875 12.839844 L 3.96875 18.296875 C 3.96875 18.707031 3.636719 19.039062 3.226562 19.039062 C 2.8125 19.039062 2.480469 18.707031 2.480469 18.296875 L 2.480469 12.839844 C 2.480469 12.429688 2.8125 12.09375 3.226562 12.09375 Z M 3.226562 12.09375 "/>
<path style=" stroke:none;fill-rule:nonzero;fill:rgb(47.058824%,56.470591%,61.176473%);fill-opacity:1;" d="M 8.195312 12.09375 C 8.609375 12.09375 8.945312 12.429688 8.945312 12.839844 L 8.945312 22.265625 C 8.945312 22.675781 8.609375 23.011719 8.195312 23.011719 C 7.777344 23.011719 7.441406 22.675781 7.441406 22.265625 L 7.441406 12.839844 C 7.441406 12.429688 7.777344 12.09375 8.195312 12.09375 Z M 8.195312 12.09375 "/>
<path style=" stroke:none;fill-rule:nonzero;fill:rgb(74.117649%,74.117649%,74.117649%);fill-opacity:1;" d="M 3.472656 2.171875 C 2.648438 2.171875 1.984375 2.835938 1.984375 3.660156 L 1.984375 8.621094 C 1.984375 9.445312 2.648438 10.109375 3.472656 10.109375 L 20.339844 10.109375 C 21.167969 10.109375 21.832031 9.445312 21.832031 8.621094 L 21.832031 3.660156 C 21.832031 2.835938 21.167969 2.171875 20.339844 2.171875 Z M 4.464844 3.660156 L 19.347656 3.660156 C 19.898438 3.660156 20.339844 4.101562 20.339844 4.652344 L 20.339844 7.628906 C 20.339844 8.179688 19.898438 8.621094 19.347656 8.621094 L 4.464844 8.621094 C 3.914062 8.621094 3.472656 8.179688 3.472656 7.628906 L 3.472656 4.652344 C 3.472656 4.101562 3.914062 3.660156 4.464844 3.660156 Z M 4.464844 3.660156 "/>
<path style=" stroke:none;fill-rule:nonzero;fill:rgb(47.058824%,56.470591%,61.176473%);fill-opacity:1;" d="M 16.867188 12.09375 L 20.839844 12.09375 C 21.386719 12.09375 21.832031 12.539062 21.832031 13.085938 L 21.832031 17.054688 C 21.832031 17.605469 21.386719 18.046875 20.839844 18.046875 L 16.867188 18.046875 C 16.320312 18.046875 15.875 17.605469 15.875 17.054688 L 15.875 13.085938 C 15.875 12.539062 16.320312 12.09375 16.867188 12.09375 Z M 16.867188 12.09375 "/>
</g>
</svg>

<svg xmlns="http://www.w3.org/2000/svg" width="32" height="32" viewBox="0 0 24 24"><path d="M13.148 12.094c.41 0 .743.336.743.746v5.457a.745.745 0 0 1-1.488 0V12.84c0-.41.335-.746.745-.746zm0 0M3.227 12.094c.41 0 .742.336.742.746v5.457c0 .41-.332.742-.742.742a.743.743 0 0 1-.747-.742V12.84c0-.41.333-.746.747-.746zm0 0M8.195 12.094a.75.75 0 0 1 .75.746v9.426a.75.75 0 0 1-.75.746.75.75 0 0 1-.754-.746V12.84a.75.75 0 0 1 .754-.746zm0 0" fill="#78909c"/><path d="M3.473 2.172c-.825 0-1.489.664-1.489 1.488v4.961c0 .824.664 1.488 1.489 1.488H20.34c.828 0 1.492-.664 1.492-1.488v-4.96c0-.825-.664-1.49-1.492-1.49zm.992 1.488h14.883c.55 0 .992.442.992.992V7.63c0 .55-.442.992-.992.992H4.465a.989.989 0 0 1-.992-.992V4.652c0-.55.441-.992.992-.992zm0 0" fill="#bdbdbd"/><path d="M16.867 12.094h3.973c.547 0 .992.445.992.992v3.969c0 .55-.445.992-.992.992h-3.973a.991.991 0 0 1-.992-.992v-3.97c0-.546.445-.991.992-.991zm0 0" fill="#78909c"/></svg>
